images_sukapura_svg/cmd/32/spellonline.svg

<svg viewBox="0 0 32 32" xmlns="http://www.w3.org/2000/svg"><g fill="#4b4b4f"><path d="m7.62467 13.19561h-4.6966827l-.955816 2.80153h-2.0269893l4.4082896-11.99714h1.8951525l4.3588509 11.99714h-2.035229zm-4.1198971-1.672678h3.5513511l-1.7385965-5.125152h-.049439z"/><path d="m12 15.99714v-11.99714h3.98806q1.99403 0 3.114642.8239794 1.120612.8157395 1.120612 2.4472187 0 .8157395-.469668 1.4584434-.469668.6427039-1.301887.9558161 1.071173.238954 1.647958 1.0299744.576786.79102.576786 1.837474 0 1.689158-1.104132 2.570816-1.104133.873418-3.048724.873418zm2.00227-5.454744v3.856224h2.521377q1.038214 0 1.59852-.469668.560306-.477908.560306-1.376046 0-.955816-.469668-1.483163-.469669-.527347-1.466684-.527347zm0-1.4914025h2.208265q.931097 0 1.466683-.4367091.543826-.4449488.543826-1.2524486 0-.8898977-.568545-1.318367-.568546-.436709-1.664439-.436709h-1.98579z"/><path d="m31.188873 12.017319.01648.04944q.03296 1.820994-1.18653 2.966326-1.21125 1.137091-3.287678 1.137091-2.101147 0-3.419514-1.409005-1.310128-1.417245-1.310128-3.61727v-2.282423q0-2.191785 1.293648-3.609029 1.301887-1.425485 3.378315-1.425485 2.125867 0 3.345356 1.120612 1.227729 1.112372 1.19477 2.999285l-.01648.04944h-1.936352q0-1.21125-.659183-1.886913-.650944-.675663-1.928112-.675663-1.227729 0-1.952831.972296-.716862.972295-.716862 2.438979v2.298902q0 1.483163.733341 2.455458.741582.972296 1.994031.972296 1.244208 0 1.886912-.667423.642704-.667423.642704-1.886913z"/></g><path d="m30.091797 16.558594c-.164931-.0303-.34487-.03226-.525391.0039a.46440423.46440423 0 0 0 -.0039 0c-.359762.07602-.681249.269599-.916016.548828-.000589.000701-.0014.0013-.002.002l-7.01949 7.855428-2.287109-2.238281c-.642077-.627867-1.689903-.627751-2.332032 0-.641661.627393-.641689 1.681155 0 2.308593l3.511719 3.433594a.46440423.46440423 0 0 0 .0059.0059l.916015.859375a.46440423.46440423 0 0 0 .669922-.0332l.800781-.927735 8.183594-9.144531c.436846-.464993.442737-1.122793.228516-1.626953-.214222-.504161-.642829-.938924-1.230469-1.046875z" fill="#32d74b"/><path d="m8.3320312 18-.3984374.435547-1.9277344 1.927734-1.9277344-1.927734c-.5152125-.834647-1.6354279.285568-.8007812.800781l2.328125 2.328125.4003906.435547.4003906-.435547 1.9257812-1.927734 2.3232348 2.359189 2.333016-2.359189 1.925781 1.927734.40039.435547.400391-.435547 1.927734-1.927734 1.529859 1.650456.806708-.828753-1.938129-2.022875-.398438-.435547-.40039.435547-1.927735 1.927734-1.927734-1.927734-.398438-.435547-.40039.435547-1.927735 1.927734-1.9277341-1.927734z" fill="#d70015"/></svg>

<?xml version="1.0" encoding="UTF-8" standalone="no"?>
<svg
   xmlns:dc="http://purl.org/dc/elements/1.1/"
   xmlns:cc="http://creativecommons.org/ns#"
   xmlns:rdf="http://www.w3.org/1999/02/22-rdf-syntax-ns#"
   xmlns:svg="http://www.w3.org/2000/svg"
   xmlns="http://www.w3.org/2000/svg"
   xmlns:sodipodi="http://sodipodi.sourceforge.net/DTD/sodipodi-0.dtd"
   xmlns:inkscape="http://www.inkscape.org/namespaces/inkscape"
   viewBox="0 0 32 32"
   version="1.1"
   id="svg22"
   sodipodi:docname="spellonline.svg"
   inkscape:export-filename="D:\Rizmut\libreoffice-style-sukapura-master\images_sukapura\cmd\32\spellonline.png"
   inkscape:export-xdpi="96"
   inkscape:export-ydpi="96"
   inkscape:version="0.92.3 (2405546, 2018-03-11)">
  <metadata
     id="metadata28">
    <rdf:RDF>
      <cc:Work
         rdf:about="">
        <dc:format>image/svg+xml</dc:format>
        <dc:type
           rdf:resource="http://purl.org/dc/dcmitype/StillImage" />
      </cc:Work>
    </rdf:RDF>
  </metadata>
  <defs
     id="defs26">
    <linearGradient
       gradientTransform="translate(-29.694915,1.220339)"
       id="a-6"
       gradientUnits="userSpaceOnUse"
       x1="14"
       x2="13.79661"
       y1="22"
       y2="2.1355929">
      <stop
         offset="0"
         stop-color="#0040dd"
         id="stop2" />
      <stop
         offset="1"
         stop-color="#0a84ff"
         id="stop4" />
    </linearGradient>
  </defs>
  <sodipodi:namedview
     pagecolor="#ffffff"
     bordercolor="#666666"
     borderopacity="1"
     objecttolerance="10"
     gridtolerance="10"
     guidetolerance="10"
     inkscape:pageopacity="0"
     inkscape:pageshadow="2"
     inkscape:window-width="1366"
     inkscape:window-height="716"
     id="namedview24"
     showgrid="true"
     inkscape:snap-global="true"
     inkscape:zoom="11.313709"
     inkscape:cx="17.906232"
     inkscape:cy="10.235543"
     inkscape:window-x="-8"
     inkscape:window-y="-8"
     inkscape:window-maximized="1"
     inkscape:current-layer="svg22">
    <inkscape:grid
       type="xygrid"
       id="grid835" />
  </sodipodi:namedview>
  <g
     id="g1675">
    <path
       d="M 7.62467,13.19561 H 2.9279873 l -0.955816,2.80153 H -0.054818 L 4.3534716,4 H 6.2486241 L 10.607475,15.99714 H 8.572246 Z M 3.5047729,11.522932 H 7.056124 L 5.3175275,6.39778 h -0.049439 z"
       style="font-style:normal;font-variant:normal;font-weight:500;font-stretch:normal;font-size:medium;line-height:1.25;font-family:Roboto;-inkscape-font-specification:'Roboto Medium';letter-spacing:0px;word-spacing:0px;fill:#4b4b4f;fill-opacity:1;stroke:none;stroke-width:0.42187744"
       id="path848"
       inkscape:connector-curvature="0" />
    <path
       d="M 12,15.99714 V 4 h 3.98806 q 1.99403,0 3.114642,0.8239794 1.120612,0.8157395 1.120612,2.4472187 0,0.8157395 -0.469668,1.4584434 -0.469668,0.6427039 -1.301887,0.9558161 1.071173,0.238954 1.647958,1.0299744 0.576786,0.79102 0.576786,1.837474 0,1.689158 -1.104132,2.570816 -1.104133,0.873418 -3.048724,0.873418 z m 2.00227,-5.454744 v 3.856224 h 2.521377 q 1.038214,0 1.59852,-0.469668 0.560306,-0.477908 0.560306,-1.376046 0,-0.955816 -0.469668,-1.483163 -0.469669,-0.527347 -1.466684,-0.527347 z m 0,-1.4914025 h 2.208265 q 0.931097,0 1.466683,-0.4367091 0.543826,-0.4449488 0.543826,-1.2524486 0,-0.8898977 -0.568545,-1.318367 -0.568546,-0.436709 -1.664439,-0.436709 h -1.98579 z"
       style="font-style:normal;font-variant:normal;font-weight:500;font-stretch:normal;font-size:medium;line-height:1.25;font-family:Roboto;-inkscape-font-specification:'Roboto Medium';letter-spacing:0px;word-spacing:0px;fill:#4b4b4f;fill-opacity:1;stroke:none;stroke-width:0.42187744"
       id="path850"
       inkscape:connector-curvature="0" />
    <path
       d="m 31.188873,12.017319 0.01648,0.04944 q 0.03296,1.820994 -1.18653,2.966326 -1.21125,1.137091 -3.287678,1.137091 -2.101147,0 -3.419514,-1.409005 -1.310128,-1.417245 -1.310128,-3.61727 V 8.861478 q 0,-2.191785 1.293648,-3.609029 1.301887,-1.425485 3.378315,-1.425485 2.125867,0 3.345356,1.120612 1.227729,1.112372 1.19477,2.999285 l -0.01648,0.04944 H 29.26076 q 0,-1.21125 -0.659183,-1.886913 -0.650944,-0.675663 -1.928112,-0.675663 -1.227729,0 -1.952831,0.972296 Q 24.003772,7.378316 24.003772,8.845 v 2.298902 q 0,1.483163 0.733341,2.455458 0.741582,0.972296 1.994031,0.972296 1.244208,0 1.886912,-0.667423 0.642704,-0.667423 0.642704,-1.886913 z"
       style="font-style:normal;font-variant:normal;font-weight:500;font-stretch:normal;font-size:medium;line-height:1.25;font-family:Roboto;-inkscape-font-specification:'Roboto Medium';letter-spacing:0px;word-spacing:0px;fill:#4b4b4f;fill-opacity:1;stroke:none;stroke-width:0.42187744"
       id="path845"
       inkscape:connector-curvature="0" />
  </g>
  <path
     inkscape:connector-curvature="0"
     style="fill:#32d74b"
     d="m 30.091797,16.558594 c -0.164931,-0.0303 -0.34487,-0.03226 -0.525391,0.0039 a 0.46440423,0.46440423 0 0 0 -0.0039,0 c -0.359762,0.07602 -0.681249,0.269599 -0.916016,0.548828 -5.89e-4,7.01e-4 -0.0014,0.0013 -0.002,0.002 L 21.625,24.96875 19.337891,22.730469 c -0.642077,-0.627867 -1.689903,-0.627751 -2.332032,0 -0.641661,0.627393 -0.641689,1.681155 0,2.308593 l 3.511719,3.433594 a 0.46440423,0.46440423 0 0 0 0.0059,0.0059 l 0.916015,0.859375 a 0.46440423,0.46440423 0 0 0 0.669922,-0.0332 l 0.800781,-0.927735 8.183594,-9.144531 c 0.436846,-0.464993 0.442737,-1.122793 0.228516,-1.626953 -0.214222,-0.504161 -0.642829,-0.938924 -1.230469,-1.046875 z"
     id="path1084" />
  <path
     inkscape:connector-curvature="0"
     style="fill:#d70015"
     d="M 8.3320312,18 7.9335938,18.435547 6.0058594,20.363281 4.078125,18.435547 C 3.5629125,17.6009 2.4426971,18.721115 3.2773438,19.236328 L 5.6054688,21.564453 6.0058594,22 6.40625,21.564453 l 1.9257812,-1.927734 2.3232348,2.359189 2.333016,-2.359189 1.925781,1.927734 0.40039,0.435547 0.400391,-0.435547 1.927734,-1.927734 1.529859,1.650456 0.806708,-0.828753 L 18.041016,18.435547 17.642578,18 17.242188,18.435547 15.314453,20.363281 13.386719,18.435547 12.988281,18 l -0.40039,0.435547 -1.927735,1.927734 -1.9277341,-1.927734 z"
     id="path1825" />
</svg>
